svgs/thin/scythe.svg

<svg xmlns="http://www.w3.org/2000/svg" viewBox="0 0 640 512"><!--! Font Awesome Pro 6.3.0 by @fontawesome - https://fontawesome.com License - https://fontawesome.com/license (Commercial License) Copyright 2023 Fonticons, Inc. --><path d="M505.7 184c0-4.406-3.594-8-8-8H21.56c59.16-101.9 171.1-160 311.8-160H536C540.4 16 544 12.41 544 8S540.4 0 536 0h-202.6C182.1 0 60.94 65.72 .9062 180.3c-1.281 2.5-1.188 5.469 .25 7.875C2.594 190.5 5.188 192 8 192h489.7C502.1 192 505.7 188.4 505.7 184zM632.6 11.62c-6-7.375-15.12-11.62-24.62-11.62l-25.5 0l-59.75 288h-106.7c-17.67 0-31.99 14.33-31.99 32s14.32 32 31.99 32h93.49l-28.8 122.2C476.6 493.7 491.5 512 511.4 512c14.88 0 27.72-10.43 30.76-24.99L639.5 38C641.2 28.62 638.7 18.1 632.6 11.62zM526.5 483.7C525 490.8 518.7 496 511.4 496c-4.66 0-9.021-2.074-11.96-5.689c-2.941-3.613-4.086-8.305-3.232-12.45L529.7 336h-113.7c-8.822 0-15.1-7.178-15.1-16s7.176-16 15.1-16h119.8l59.75-288h12.48c4.732 0 9.297 2.139 12.31 5.844c3.074 3.703 4.332 8.521 3.547 12.77L526.5 483.7z"/></svg>

<svg xmlns="http://www.w3.org/2000/svg" viewBox="0 0 640 512"><!-- Font Awesome Pro 6.0.0-alpha2 by @fontawesome - https://fontawesome.com License - https://fontawesome.com/license (Commercial License) --><path d="M505.711 184C505.711 179.594 502.117 176 497.711 176H21.555C80.711 74.125 193.524 16 333.399 16H535.992C540.399 16 543.992 12.406 543.992 8S540.399 0 535.992 0H333.399C182.117 0 60.93 65.719 0.899 180.281C-0.383 182.781 -0.289 185.75 1.149 188.156C2.586 190.531 5.18 192 7.992 192H497.711C502.117 192 505.711 188.406 505.711 184ZM632.572 11.625C626.572 4.25 617.447 0 607.949 0H582.451L522.705 288H415.963C398.291 288 383.965 302.326 383.965 320S398.291 352 415.963 352H509.455L480.658 474.193C476.613 493.699 491.506 512 511.428 512C526.305 512 539.145 501.566 542.188 487.006L639.445 38C641.195 28.625 638.695 19 632.572 11.625ZM526.528 483.73C525.041 490.84 518.692 496 511.428 496C506.768 496 502.406 493.926 499.465 490.311C496.524 486.697 495.379 482.006 496.233 477.863L525.029 355.67L529.664 336H415.963C407.141 336 399.965 328.822 399.965 320S407.141 304 415.963 304H535.727L538.371 291.25L595.473 16H607.949C612.682 16 617.246 18.139 620.262 21.844C623.336 25.547 624.594 30.365 623.809 34.613L526.528 483.73Z"/></svg>
